assets/icons/qvision/thumb_up.svg

<svg xmlns="http://www.w3.org/2000/svg" height="24" viewBox="0 0 24 24" width="24"><path d="M0 0h24v24H0V0z" fill="none"/><path d="M1 21h4V9H1v12zm22-11c0-1.1-.9-2-2-2h-6.31l.95-4.57.03-.32c0-.41-.17-.79-.44-1.06L14.17 1 7.59 7.59C7.22 7.95 7 8.45 7 9v10c0 1.1.9 2 2 2h9c.83 0 1.54-.5 1.84-1.22l3.02-7.05c.09-.23.14-.47.14-.73v-2z"/></svg>

<svg width="24" height="24" viewBox="0 0 24 24" fill="none" xmlns="http://www.w3.org/2000/svg">
<g clip-path="url(#clip0_147_4879)">
<path d="M1 21H5V9H1V21ZM23 10C23 8.9 22.1 8 21 8H14.69L15.64 3.43L15.67 3.11C15.67 2.7 15.5 2.32 15.23 2.05L14.17 1L7.59 7.59C7.22 7.95 7 8.45 7 9V19C7 20.1 7.9 21 9 21H18C18.83 21 19.54 20.5 19.84 19.78L22.86 12.73C22.95 12.5 23 12.26 23 12V10Z" fill="#323232"/>
</g>
<defs>
<clipPath id="clip0_147_4879">
<rect width="24" height="24" fill="white"/>
</clipPath>
</defs>
</svg>
